packages/vibrant-icons/assets/icons/TextH1/Fill.svg

<svg width="24" height="24" viewBox="0 0 24 24" fill="none" xmlns="http://www.w3.org/2000/svg">
<path d="M19.9765 22.6505V16.6915L18 18.0165V16.0895L18.044 16.06L20.0405 14.7H22.137V22.6505H19.9765Z" fill="#0C0C0C"/>
<path d="M13.3005 21V13.1754H4.15V21H1.75V3H4.15V10.7754H13.3V3H15.7V21H13.3005Z" fill="#0C0C0C"/>
</svg>

<svg xmlns="http://www.w3.org/2000/svg" width="24" height="24" fill="none"><path fill="#0C0C0C" d="M19.977 22.65v-5.958L18 18.017V16.09l.044-.03 1.997-1.36h2.096v7.95zM13.3 21v-7.825H4.15V21h-2.4V3h2.4v7.775h9.15V3h2.4v18z"/></svg>
